X:1
T: The Humors of Tralibane
C:
R:Jig
Q:180
K:D
M:6/8
L:1/16
gf|e2c2A2 A2c2e2|d2B2G2 G2B2d2|c2B2A2 e2c2A2|d2e2f2 g2f2g2|e2c2A2 A2c2e2|d2B2G2 G2G2d2|c2B2A2 e2d2B2|B2A2A2 A4gf|
e2c2A2 A2c2e2|d2B2G2 G2B2d2|c2B2A2 e2c2A2|d2e2f2 g2f2g2|e2c2A2 A2c2e2|d2B2G2 G2G2d2|c2B2A2 e2d2B2|B2A2A2 A4d2|
e2f2g2 e2f2g2|f2a2f2 g2e2d2|e2f2g2 e2f2g2|b2a2a2 a4d2|e2f2g2 e2f2g2|f2e2d2 B2c2d2|g2f2e2 e2d2B2|B2A2A2 A4d2|
e2f2g2 e2f2g2|f2a2f2 g2e2d2|e2f2g2 e2f2g2|b2a2a2 a4d2|e2f2g2 e2f2g2|f2e2d2 B2c2d2|g2f2e2 e2d2B2|B2A2A2 A4||
